X: 8134
T: Convenience, The
R: reel
M: 4/4
K: Dmajor
|:dABA dABA|GAFA EADA|dABA dABA|FAEA D3 A:|
d~f3 dfed|cdef gece|d~f3 d (3gfe d|cABc d2 (3ABc|
d~f3 dfed|cdef gece|a~f3 gfed|cABc defg|
a2 af gfed|cded cdef|(3aaa af gfed|cABc defg|
[1 aA (3AAA gAAA|fA (3AAA eAAA|(3fgab f gbag|fdec d3 A:|
[2 aA (3AAA fAdA|eA (3AAA eAcA|fgaf gabg|fdec d4||

